src/dsmComponents/Icons/check-in-20px.svg

<?xml version="1.0" encoding="UTF-8"?>
<svg width="18px" height="20px" viewBox="0 0 18 20" version="1.1" xmlns="http://www.w3.org/2000/svg" xmlns:xlink="http://www.w3.org/1999/xlink">
    <!-- Generator: Sketch 59.1 (86144) - https://sketch.com -->
    <title>check-in-20px</title>
    <desc>Created with Sketch.</desc>
    <defs>
        <path d="M6.42857143,0 L6.42857143,2.5 L11.5714286,2.5 L11.5714286,0 L14.1428571,0 L14.1428571,2.5 L16.7142857,2.5 C17.4252857,2.5 18,3.06 18,3.75 L18,3.75 L18,6.25 L15.4285714,6.25 L15.4285714,5 L2.57142857,5 L2.57142857,17.5 L15.4285714,17.5 L15.4285714,16.25 L18,16.25 L18,18.75 C18,19.44 17.4252857,20 16.7142857,20 L16.7142857,20 L1.28571429,20 C0.574714286,20 0,19.44 0,18.75 L0,18.75 L0,3.75 C0,3.06 0.574714286,2.5 1.28571429,2.5 L1.28571429,2.5 L3.85714286,2.5 L3.85714286,0 L6.42857143,0 Z M11.5714286,6.25 L18,11.25 L11.5714286,16.25 L11.5714286,12.5 L5.14285714,12.5 L5.14285714,10 L11.5714286,10 L11.5714286,6.25 Z" id="path-1"></path>
    </defs>
    <g id="Final" stroke="none" stroke-width="1" fill="none" fill-rule="evenodd">
        <g id="All-Nucleo-Icons" transform="translate(-464.000000, -1174.000000)">
            <g id="Solo/Nucleo/20px/check-in" transform="translate(461.000000, 1172.000000)">
                <g transform="translate(3.000000, 2.000000)" id="check-in">
                    <g>
                        <g id="Colour/Default-Colour">
                            <mask id="mask-2" fill="white">
                                <use xlink:href="#path-1"></use>
                            </mask>
                            <g id="Mask" fill-rule="nonzero"></g>
                            <g id="colour/neutral/chia" mask="url(#mask-2)" fill="#737373">
                                <g transform="translate(-23.000000, -22.000000)" id="Colour">
                                    <rect x="0" y="0" width="64" height="64"></rect>
                                </g>
                            </g>
                        </g>
                    </g>
                </g>
            </g>
        </g>
    </g>
</svg>

<svg width="18" height="20" xmlns="http://www.w3.org/2000/svg" xmlns:xlink="http://www.w3.org/1999/xlink"><defs><path d="M6.429 0v2.5h5.142V0h2.572v2.5h2.571c.711 0 1.286.56 1.286 1.25v2.5h-2.571V5H2.57v12.5h12.86v-1.25H18v2.5c0 .69-.575 1.25-1.286 1.25H1.286C.575 20 0 19.44 0 18.75v-15C0 3.06.575 2.5 1.286 2.5h2.571V0H6.43zm5.142 6.25l6.429 5-6.429 5V12.5H5.143V10h6.428V6.25z" id="check-in-20px_svg__a"/></defs><use fill="#737373" xlink:href="#check-in-20px_svg__a" fill-rule="evenodd"/></svg>
